brandFactory_export/2.Regular/Historial medico_2Regular.svg

<?xml version="1.0" encoding="UTF-8"?>
<svg width="24px" height="24px" viewBox="0 0 24 24" version="1.1" xmlns="http://www.w3.org/2000/svg" xmlns:xlink="http://www.w3.org/1999/xlink">
    <title>2.Regular/Historial medico_2Regular</title>
    <g id="Symbols" stroke="none" stroke-width="1" fill="none" fill-rule="evenodd">
        <g id="2.Regular/Historial-medico_2Regular" fill="#5CB615" fill-rule="nonzero">
            <path d="M18.8252101,22.2084034 C19.1042017,22.2084034 19.3058824,22.0605042 19.3327731,22.0033613 L19.3226891,3.28403361 C19.2991597,3.28403361 19.0806723,3.12941176 18.8252101,3.12941176 L15.6487395,3.12941176 C15.6521008,3.16638655 15.6588235,3.19663866 15.6588235,3.2302521 L15.6689076,3.46218487 L15.6655462,3.58991597 C15.6016807,5.40168067 13.8134454,5.65714286 11.8907563,5.65714286 C9.96806723,5.65714286 8.17983193,5.40168067 8.11260504,3.55630252 L8.1092437,3.46218487 L8.11260504,3.31092437 L8.12268908,3.18991597 C8.12268908,3.1697479 8.12941176,3.14621849 8.12941176,3.12605042 L4.94957983,3.12605042 C4.6907563,3.12605042 4.47226891,3.28403361 4.43529412,3.34789916 L4.4487395,22.0537815 C4.46890756,22.0571429 4.67058824,22.2084034 4.94957983,22.2084034 L18.8252101,22.2084034 Z M11.887395,1.41512605 C9.88067227,1.41512605 9.57815126,2.42016807 9.53781513,3.29747899 L9.53109244,3.46554622 C9.54453782,3.78823529 9.55798319,4.2487395 11.887395,4.2487395 C14.2168067,4.2487395 14.2336134,3.78487395 14.2403361,3.51260504 L14.2403361,3.37142857 C14.2336134,3.11596639 14.1966387,2.86386555 14.1226891,2.61848739 C14.0319328,2.31932773 13.7462185,1.41512605 11.887395,1.41512605 Z M18.8252101,1.71764706 C19.8504202,1.71764706 20.7478992,2.45042017 20.7478992,3.28403361 L20.7478992,22.0571429 C20.7478992,22.907563 19.8672269,23.6235294 18.8252101,23.6235294 L4.95294118,23.6235294 C3.91092437,23.6235294 3.0302521,22.9042017 3.0302521,22.0571429 L3.0302521,3.28067227 C3.0302521,2.44705882 3.92773109,1.71428571 4.94957983,1.71428571 L8.49579832,1.71428571 C9.0605042,0.618487395 10.2268908,0 11.887395,0 C13.9109244,0 14.8487395,0.850420168 15.2823529,1.71764706 L18.8252101,1.71764706 Z M11.0537815,3.75798319 C10.687395,3.75798319 10.3915966,3.46554622 10.3882353,3.09915966 C10.3882353,2.73613445 10.6840336,2.44033613 11.0537815,2.44033613 L12.7243697,2.44033613 C13.0907563,2.44033613 13.3865546,2.73613445 13.3865546,3.09915966 C13.3865546,3.46218487 13.0907563,3.75798319 12.7243697,3.75798319 L11.0537815,3.75798319 Z M17.9478992,13.8554622 C18.3142857,13.8554622 18.610084,14.1512605 18.610084,14.5142857 C18.610084,14.8773109 18.3142857,15.1731092 17.9478992,15.1731092 L15.6016807,15.1731092 C15.3193277,15.1731092 15.0705882,14.9983193 14.9764706,14.7327731 L14.5966387,13.6571429 L14.287395,14.6991597 C14.2039036,14.9803627 13.9454367,15.1731872 13.6521008,15.1731092 L12.9495798,15.1731092 L11.8571429,17.6 C11.7058824,17.9361345 11.312605,18.0840336 10.9798319,17.9327731 C10.7848739,17.8453782 10.6436975,17.6705882 10.6,17.4588235 L9.5512605,12.2554622 L8.80840336,14.6420168 C8.7210084,14.9176471 8.46554622,15.1058824 8.17310924,15.1058824 L5.82689076,15.1058824 C5.4605042,15.1058824 5.16470588,14.8134454 5.16134454,14.4470588 C5.16134454,14.0840336 5.45714286,13.7882353 5.82689076,13.7882353 L7.68571429,13.7882353 L9.05714286,9.38487395 C9.14453782,9.09243697 9.42352941,8.90084034 9.72605042,8.9210084 C10.0285714,8.93445378 10.2806723,9.15294118 10.3411765,9.4487395 L11.4941176,15.1731092 L11.9142857,14.2420168 C12.0218487,14.0033613 12.2571429,13.8521008 12.5193277,13.8521008 L13.1546218,13.8521008 L13.9042017,11.3142857 C13.9882353,11.0386555 14.2369748,10.8470588 14.5260504,10.8403361 C14.8117647,10.8369748 15.0705882,11.0117647 15.1680672,11.2806723 L16.0756303,13.8487395 C16.0722689,13.8554622 17.9478992,13.8554622 17.9478992,13.8554622 L17.9478992,13.8554622 Z" id="Historial-medico_2Regular"></path>
        </g>
    </g>
</svg>

<svg width="24" height="24" viewBox="0 0 24 24" xmlns="http://www.w3.org/2000/svg"><path d="M18.825 22.208c.28 0 .48-.147.508-.205l-.01-18.719c-.024 0-.242-.155-.498-.155H15.65c.003.037.01.068.01.101l.01.232-.003.128c-.064 1.812-1.853 2.067-3.775 2.067-1.923 0-3.711-.255-3.778-2.1l-.004-.095.004-.151.01-.121c0-.02.006-.044.006-.064H4.95c-.258 0-.477.158-.514.222l.014 18.706c.02.003.222.154.5.154h13.876zM11.887 1.415c-2.006 0-2.309 1.005-2.35 1.882l-.006.169c.014.322.027.783 2.356.783 2.33 0 2.347-.464 2.353-.736V3.37a2.86 2.86 0 00-.117-.753c-.091-.299-.377-1.203-2.236-1.203zm6.938.303c1.025 0 1.923.732 1.923 1.566v18.773c0 .85-.88 1.567-1.923 1.567H4.953c-1.042 0-1.923-.72-1.923-1.567V3.281c0-.834.898-1.567 1.92-1.567h3.546C9.06.618 10.226 0 11.887 0c2.024 0 2.962.85 3.395 1.718h3.543zm-7.771 2.04a.663.663 0 01-.666-.659c0-.363.296-.659.666-.659h1.67a.66.66 0 01.663.66.66.66 0 01-.663.658h-1.67zm6.894 10.097a.66.66 0 01.662.66.66.66 0 01-.662.658h-2.346a.66.66 0 01-.626-.44l-.38-1.076-.309 1.042a.663.663 0 01-.635.474h-.702L11.857 17.6a.665.665 0 01-1.257-.141l-1.049-5.204-.743 2.387a.665.665 0 01-.635.464H5.827a.663.663 0 01-.666-.659c0-.363.296-.659.666-.659h1.859l1.371-4.403a.653.653 0 01.67-.464.659.659 0 01.614.528l1.153 5.724.42-.931a.66.66 0 01.605-.39h.636l.75-2.538a.666.666 0 011.263-.033l.908 2.568c-.004.006 1.872.006 1.872.006z" fill="#5CB615" fill-rule="nonzero"/></svg>
